X: 29241
T: New Jigs, The
R: jig
M: 6/8
K: Gdorian
GAB f2f|ABd g2g|GAB f2f|d2c dBA|GAB f2f|ABd g2g|f2e d2c|e2F A3:|
|:a2f e2d|f2d c2B|e2c cBc|d2c B2A|a2f e2d|f2d c2B|d2d def|e6:|
efe edc|d2B A2G|FGA GAB|ABc Bcd|efe efg|aba agf|ecA ceg|d6|
efe edc|d2B A2G|FGA GAB|ABc Bcd|efe edc|d2B A2G|FGA cdf|g6||

